X:4857
L:1/8
M:2/4
K:G
 G>GG>G | c2 B>A | B>GB>d | g>gg>g | G>GG>G | c2 B>A | B>dB>G | A>F D2 :: E | d>dd>d | g>ff | 
 f>gf>d | ^c>ec>A | ddef | g2 f>e | dcBA | G4 :|

